X: 21135
T: Kas Ha Barh
R: reel
M: 4/4
K: Bminor
|:Bffg f2ed|e2de fdBA|Bffg f2ed|e2de f3A|
Bffg f2ed|e2de fdBA|Bffg f2ed|e2 dc B4||
|:f2 ab f3d|e2de fdBA|Bffg f2ed|e2de f3g|
f2 ab f3d|e2 de fdBA|Bffg f2ed|e2 dc B4||
|:BABc d3B|cdec dcBA|(3Bcd ec dcBc|dBcd B4:|

